assets/img/braze_icons/building-06.svg

<svg fill="none" height="24" viewBox="0 0 24 24" width="24" xmlns="http://www.w3.org/2000/svg"><path clip-rule="evenodd" d="m14.1615 2h3.677c.5272-.00002.982-.00003 1.3565.03057.3954.0323.7886.10362 1.167.29641.5645.28762 1.0234.74657 1.311 1.31105.1928.37838.2641.7716.2964 1.16695.0306.37457.0306.82933.0306 1.35648v13.83854c.5523 0 1 .4477 1 1s-.4477 1-1 1h-20c-.55229 0-1-.4477-1-1s.44771-1 1-1v-5.8385c-.00002-.5272-.00003-.9819.03057-1.3565.0323-.3954.10362-.7886.29641-1.167.28762-.5645.74656-1.0234 1.31105-1.311.37838-.1928.7716-.2641 1.16694-.2964.37457-.03063.82934-.03062 1.35649-.0306h3.83854v-3.83855c-.00002-.52714-.00004-.9819.0306-1.35647.0323-.39535.1036-.78857.2964-1.16695.2876-.56448.7465-1.02343 1.311-1.31105.3784-.19279.7716-.26411 1.167-.29641.3745-.0306.8293-.03059 1.3565-.03057zm4.8385 5c0-.55228-.4477-1-1-1h-4c-.5523 0-1 .44772-1 1 0 .55229.4477 1 1 1h4c.5523 0 1-.44771 1-1zm0 4c0-.5523-.4477-1-1-1h-4c-.5523 0-1 .4477-1 1s.4477 1 1 1h4c.5523 0 1-.4477 1-1zm-1 3c.5523 0 1 .4477 1 1s-.4477 1-1 1h-4c-.5523 0-1-.4477-1-1s.4477-1 1-1z" fill="#801ed7" fill-rule="evenodd"/></svg>

<svg width="24" height="24" viewBox="0 0 24 24" fill="none" xmlns="http://www.w3.org/2000/svg">
<path fill-rule="evenodd" clip-rule="evenodd" d="M14.1615 2H17.8385C18.3657 1.99998 18.8205 1.99997 19.195 2.03057C19.5904 2.06287 19.9836 2.13419 20.362 2.32698C20.9265 2.6146 21.3854 3.07355 21.673 3.63803C21.8658 4.01641 21.9371 4.40963 21.9694 4.80498C22 5.17955 22 5.63431 22 6.16146V20C22.5523 20 23 20.4477 23 21C23 21.5523 22.5523 22 22 22H2C1.44771 22 1 21.5523 1 21C1 20.4477 1.44771 20 2 20V14.1615C1.99998 13.6343 1.99997 13.1796 2.03057 12.805C2.06287 12.4096 2.13419 12.0164 2.32698 11.638C2.6146 11.0735 3.07354 10.6146 3.63803 10.327C4.01641 10.1342 4.40963 10.0629 4.80497 10.0306C5.17954 9.99997 5.63431 9.99998 6.16146 10L10 10V6.16145C9.99998 5.63431 9.99996 5.17955 10.0306 4.80498C10.0629 4.40963 10.1342 4.01641 10.327 3.63803C10.6146 3.07355 11.0735 2.6146 11.638 2.32698C12.0164 2.13419 12.4096 2.06287 12.805 2.03057C13.1795 1.99997 13.6343 1.99998 14.1615 2ZM19 7C19 6.44772 18.5523 6 18 6H14C13.4477 6 13 6.44772 13 7C13 7.55229 13.4477 8 14 8H18C18.5523 8 19 7.55229 19 7ZM19 11C19 10.4477 18.5523 10 18 10H14C13.4477 10 13 10.4477 13 11C13 11.5523 13.4477 12 14 12H18C18.5523 12 19 11.5523 19 11ZM18 14C18.5523 14 19 14.4477 19 15C19 15.5523 18.5523 16 18 16H14C13.4477 16 13 15.5523 13 15C13 14.4477 13.4477 14 14 14H18Z" fill="#801ED7"/>
</svg>
